Newaita-dark/actions/22/stroke-join-miter.svg

<svg height="22" viewBox="0 0 22 22" width="22" xmlns="http://www.w3.org/2000/svg"><g fill="#e0e0e0"><path d="m10.003906 9.269531v10.914063h5.460938v-5.457032h3.636718v-5.457031zm1.820313 1.816407h5.457031v1.820312h-3.636719v5.457031h-1.820312zm0 0"/><path d="m2.730469 1.992188v18.191406h5.457031v-12.734375h10.914062v-5.457031zm1.816406 1.816406h12.734375v1.820312h-10.914062v12.734375h-1.820313zm0 0"/></g></svg>

<svg xmlns="http://www.w3.org/2000/svg" xmlns:xlink="http://www.w3.org/1999/xlink" width="22px" height="22px" viewBox="0 0 22 22" version="1.1">
<g id="surface1">
     <defs>
  <style id="current-color-scheme" type="text/css">
   .ColorScheme-Text { color:#eeeeee; } .ColorScheme-Highlight { color:#424242; }
  </style>
 </defs>
<path style="fill:currentColor" class="ColorScheme-Text" d="M 10.003906 9.269531 L 10.003906 20.183594 L 15.464844 20.183594 L 15.464844 14.726562 L 19.101562 14.726562 L 19.101562 9.269531 Z M 11.824219 11.085938 L 17.28125 11.085938 L 17.28125 12.90625 L 13.644531 12.90625 L 13.644531 18.363281 L 11.824219 18.363281 Z M 11.824219 11.085938 "/>
     <defs>
  <style id="current-color-scheme" type="text/css">
   .ColorScheme-Text { color:#eeeeee; } .ColorScheme-Highlight { color:#424242; }
  </style>
 </defs>
<path style="fill:currentColor" class="ColorScheme-Text" d="M 2.730469 1.992188 L 2.730469 20.183594 L 8.1875 20.183594 L 8.1875 7.449219 L 19.101562 7.449219 L 19.101562 1.992188 Z M 4.546875 3.808594 L 17.28125 3.808594 L 17.28125 5.628906 L 6.367188 5.628906 L 6.367188 18.363281 L 4.546875 18.363281 Z M 4.546875 3.808594 "/>
</g>
</svg>
